X: 21183
U: Q=!diminuendo(!
U: q=!diminuendo)!
M: 2/4
L: 1/16
K: G
V: 1 name="3"
[|\
[A2D2][AD][AD] [A2D2][B2D2] | [d2D2][c2D2] [c4D4] | B2Bc Qd2qe2 | e2[A2D2] [A4D4] |\
[A2D2][AD][AD] [A2D2][B2D2] | [d2D2][c2D2] [c4D4] | _B2BA G2^c2 | d4 "^D.C."z4 |]
!f!G2DD B2GG | d3B g3d | d2cB c2A2 | G4 "^D.C."z4 |]


